X:1
T:Title
%%score ( 1 2 ) ( 3 4 )
L:1/8
Q:1/4=90
M:4/4
K:G
V:1 treble nm="Midi_20"
V:2 treble 
V:3 bass nm="Midi_20"
V:4 bass 
V:1
"^St Raphael (87. 87. 47)""^Edward John Hopkins\n(1818-1901)" G2 G2 F2 G2 | E3 F G2 D2 | %2
 E2 F2 G2 c2 | A3 G G4 || G2 G2 F2 G2 | G2 A2 B2 F2 | B3 B A2 d2 | ^c3 d d4 || A2 G2 F2 D2 | %9
 E2 F2 G2 B2 | A4 A4 | G8 |] %12
V:2
 B,2 B,2 C2 D2 | C2 C2 B,2 B,2 | C2 C2 B,2 E2 | D2 C2 B,4 || B,2 C2 D2 D2 | E2 E2 ^D2 D2 | %6
 E2 =D2 D2 F2 | E3 D D4 || C2 B,2 A,2 D2 | D2 C2 B,2 D2 | C4 C4 | B,8 |] %12
V:3
 D,2 D,2 D,2 G,2 | G,2 A,2 D,2 G,2 | G,2 A,2 G,2 G,2 | G,2 F,2 G,4 || G,2 G,2 A,2 G,2 | %5
 G,2 E,2 F,2 B,2 | E,2 ^E,2 F,2 A,2 | G,3 F, F,4 || F,2 G,2 A,2 B,2 | B,2 A,2 G,2 ^G,2 | %10
 (A,2 E,2) F,4 | G,8 |] %12
V:4
 G,,2 G,,2 A,,2 B,,2 | C,2 A,,2 G,,2 G,,2 | C,2 A,,2 E,2 C,2 | D,3 D, G,,4 || E,2 E,2 D,2 B,,2 | %5
 C,2 C,2 B,,2 B,,2 | ^G,,2 G,,2 A,,2 A,,2 | A,,3 D, D,4 || D,2 D,2 D,2 B,,2 | C,2 D,2 E,2 E,2 | %10
 A,,4 D,4 | G,,8 |] %12

